X:1
T:arabesqueCompases38-70
C:ClaudeDebussy
L:1/8
Q:1/4=100
M:4/4
K:Amaj
 (3ede c2- cBBc | A2 F4 G2 | FE f4 e2 | FE g2- gbaf | (3ede c2- cBBc | A2 F2- FFFG | 
 (3FEB, C4 E2 | E6 z2 | (3D,F,A, (3CB,A, (3G,B,D (3FED | (3CEG (3BAG (3FAc (3edc | 
 (3Bdf a2- agfe | fedc dcBA | (3D,F,A, (3CB,A, (3G,B,D (3FED | (3CEG (3BAG (3FAc (3edc | 
 (3Bdf a2- agfg | (3Bdf a2- agfg | (3ede c2- cBBc | A2 F4 G2 | FE f4 e2 | FE g2- gbaf | 
 (3ede c2- cBBc | A2 G2- GFFG | (3FEB, C4 E2| E6 z2 |
